X:52
T:Les les de la madeleine
M:3/4
L:1/8
R:waltz
D:Buttons and bows
K:G
zD GB ed|"G"B3A AG|"GM7"F3E ED|"G6"E2B,4|
"GM7"zD GB ed|"G"B3A AG|"Bmin7"F4E2|"Amin7"C6|
"Amin6"zE AB ce|"D7"a4ga|"Amin7"g3e fg|"Amin6"f2e4|
z^G AB cd|"D7"f3e ef|"Amin7"g3e fg|"GM7"B6|
zD GB ed|"G"B3A AG|"GM7"F3E ED|"G6"E2B,4|
"GM7"zD GB ed|"G6"g4GA|"G9"B2A3G|"C6"A4AB|
"Amin7"AE AB ce|"Amin7"a4BA|"CM7"B4BA|"GM7"B2A2G2|
"G"d3B dg"CM7"e3c eg|"D7"f3d fa|"G6"g6||
"G7"z4 g2|"CM7"e4G|"C6"c4g2|"CM7"e3g eG||"C6"c4 cA|
"C"G2c3e|"C"a2g3c|"G7"B3c BA|G4a2|
"Dmin7"=f4G2|"G7"B4a2|"Dmin7"f3a fG|"G7"B4cA|
"Dmin7"G2B3d|"G7"g2f2=f2|
"CM7"e2c2A2|G4g2|"C6"e4G2|"CM7"c4g2|
"C6"e3g eG2|"C6"e3geG2|"C6"c3GED|"C7"C2B, CD|
E2=F3G|"F"A4AB|A4c2|A4=F2|
"Dmin"D3c Bc|"C"G4E2|C3G FG|"F"A3=F EF|
"G7"B3G FG|"C"c6||
